Newaita-dark/apps/22/openra-d2k.svg

<?xml version="1.0" encoding="UTF-8"?>
<svg xmlns="http://www.w3.org/2000/svg" xmlns:xlink="http://www.w3.org/1999/xlink" width="22pt" height="22pt" viewBox="0 0 22 22" version="1.1">
<defs>
<radialGradient id="radial0" gradientUnits="userSpaceOnUse" cx="450.90894" cy="189.57936" fx="450.90894" fy="189.57936" r="21.166656" gradientTransform="matrix(0.000000119742,-0.0537161,-0.0966889,-0.0000000698078,30.609667,43.721791)">
<stop offset="0" style="stop-color:rgb(0%,0%,0%);stop-opacity:0.313725;"/>
<stop offset="0.222222" style="stop-color:rgb(0%,0%,0%);stop-opacity:0.27451;"/>
<stop offset="1" style="stop-color:rgb(0%,0%,0%);stop-opacity:0;"/>
</radialGradient>
<radialGradient id="radial1" gradientUnits="userSpaceOnUse" cx="450.90894" cy="189.57936" fx="450.90894" fy="189.57936" r="21.166656" gradientTransform="matrix(-0.000000119742,0.0537161,0.0966889,0.0000000698078,-8.779458,-5.175143)">
<stop offset="0" style="stop-color:rgb(0%,0%,0%);stop-opacity:0.313725;"/>
<stop offset="0.222222" style="stop-color:rgb(0%,0%,0%);stop-opacity:0.27451;"/>
<stop offset="1" style="stop-color:rgb(0%,0%,0%);stop-opacity:0;"/>
</radialGradient>
<radialGradient id="radial2" gradientUnits="userSpaceOnUse" cx="450.90894" cy="189.57936" fx="450.90894" fy="189.57936" r="21.166656" gradientTransform="matrix(-0.000000119742,-0.0537161,0.0966889,-0.0000000698078,-8.779458,43.721791)">
<stop offset="0" style="stop-color:rgb(0%,0%,0%);stop-opacity:0.313725;"/>
<stop offset="0.222222" style="stop-color:rgb(0%,0%,0%);stop-opacity:0.27451;"/>
<stop offset="1" style="stop-color:rgb(0%,0%,0%);stop-opacity:0;"/>
</radialGradient>
<radialGradient id="radial3" gradientUnits="userSpaceOnUse" cx="450.90894" cy="189.57936" fx="450.90894" fy="189.57936" r="21.166656" gradientTransform="matrix(0.000000119742,0.0537161,-0.0966889,0.0000000698078,30.609666,-5.175144)">
<stop offset="0" style="stop-color:rgb(0%,0%,0%);stop-opacity:0.313725;"/>
<stop offset="0.222222" style="stop-color:rgb(0%,0%,0%);stop-opacity:0.27451;"/>
<stop offset="1" style="stop-color:rgb(0%,0%,0%);stop-opacity:0;"/>
</radialGradient>
<linearGradient id="linear0" gradientUnits="userSpaceOnUse" x1="255.32306" y1="233.5" x2="255.32304" y2="254.66666" gradientTransform="matrix(0.00918504,0,0,0.0429729,8.569953,9.239164)">
<stop offset="0" style="stop-color:rgb(0%,0%,0%);stop-opacity:0.27451;"/>
<stop offset="1" style="stop-color:rgb(0%,0%,0%);stop-opacity:0;"/>
</linearGradient>
<linearGradient id="linear1" gradientUnits="userSpaceOnUse" x1="317.5" y1="148.83333" x2="317.5" y2="43" gradientTransform="matrix(0.0429729,0,0,0.0429729,-9.09592,1.507642)">
<stop offset="0" style="stop-color:rgb(100%,43.921569%,26.27451%);stop-opacity:1;"/>
<stop offset="1" style="stop-color:rgb(100%,67.058824%,56.862745%);stop-opacity:1;"/>
</linearGradient>
<linearGradient id="linear2" gradientUnits="userSpaceOnUse" x1="254" y1="233.5" x2="254" y2="-168.66667" gradientTransform="matrix(0.0429729,0,0,0.0429729,-0.000000407857,9.239163)">
<stop offset="0" style="stop-color:rgb(55.294118%,43.137255%,38.823529%);stop-opacity:1;"/>
<stop offset="1" style="stop-color:rgb(63.137255%,53.333333%,49.803922%);stop-opacity:1;"/>
</linearGradient>
<linearGradient id="linear3" gradientUnits="userSpaceOnUse" x1="317.5" y1="148.83333" x2="317.5" y2="43" gradientTransform="matrix(0.0429729,0,0,0.0429729,0.909592,10.148766)">
<stop offset="0" style="stop-color:rgb(47.058824%,56.470588%,61.176471%);stop-opacity:1;"/>
<stop offset="1" style="stop-color:rgb(69.019608%,74.509804%,77.254902%);stop-opacity:1;"/>
</linearGradient>
</defs>
<g id="surface1">
<path style=" stroke:none;fill-rule:nonzero;fill:url(#radial0);" d="M 12.507812 19.273438 L 14.324219 19.273438 L 14.324219 18.363281 L 12.507812 18.363281 Z M 12.507812 19.273438 "/>
<path style=" stroke:none;fill-rule:nonzero;fill:url(#radial1);" d="M 9.324219 19.273438 L 7.503906 19.273438 L 7.503906 20.183594 L 9.324219 20.183594 Z M 9.324219 19.273438 "/>
<path style=" stroke:none;fill-rule:nonzero;fill:url(#radial2);" d="M 9.324219 19.273438 L 7.503906 19.273438 L 7.503906 18.363281 L 9.324219 18.363281 Z M 9.324219 19.273438 "/>
<path style=" stroke:none;fill-rule:nonzero;fill:url(#radial3);" d="M 12.507812 19.273438 L 14.324219 19.273438 L 14.324219 20.183594 L 12.507812 20.183594 Z M 12.507812 19.273438 "/>
<path style=" stroke:none;fill-rule:nonzero;fill:url(#linear0);" d="M 9.324219 19.046875 L 12.507812 19.046875 L 12.507812 20.183594 L 9.324219 20.183594 Z M 9.324219 19.046875 "/>
<path style=" stroke:none;fill-rule:nonzero;fill:url(#linear1);" d="M 4.546875 3.355469 C 5.804688 3.355469 6.820312 4.375 6.820312 5.628906 C 6.820312 6.886719 5.804688 7.902344 4.546875 7.902344 C 3.292969 7.902344 2.273438 6.886719 2.273438 5.628906 C 2.273438 4.375 3.292969 3.355469 4.546875 3.355469 Z M 4.546875 3.355469 "/>
<path style=" stroke:none;fill-rule:nonzero;fill:rgb(100%,100%,100%);fill-opacity:0.313725;" d="M 5.207031 4.289062 C 4.980469 4.289062 4.792969 4.351562 4.671875 4.515625 C 3.980469 5.441406 3.53125 4.617188 2.84375 4.871094 C 2.660156 4.90625 2.523438 4.890625 2.414062 4.84375 C 2.324219 5.085938 2.273438 5.351562 2.273438 5.628906 C 2.273438 5.664062 2.273438 5.699219 2.277344 5.734375 C 2.4375 5.847656 2.578125 5.957031 2.652344 6.007812 C 3.410156 6.386719 3.765625 6.039062 4.546875 5.628906 C 5.078125 5.398438 5.988281 5.445312 6.8125 5.429688 C 6.789062 5.167969 6.726562 4.921875 6.625 4.695312 C 6.601562 4.671875 6.582031 4.648438 6.558594 4.628906 C 6.070312 4.464844 5.582031 4.289062 5.207031 4.289062 Z M 5.207031 4.289062 "/>
<path style=" stroke:none;fill-rule:nonzero;fill:rgb(12.941176%,12.941176%,12.941176%);fill-opacity:1;" d="M 4.546875 3.289062 C 3.253906 3.289062 2.210938 4.335938 2.210938 5.628906 C 2.210938 6.921875 3.253906 7.96875 4.546875 7.96875 C 5.84375 7.96875 6.886719 6.921875 6.886719 5.628906 C 6.886719 4.335938 5.84375 3.289062 4.546875 3.289062 Z M 4.546875 3.421875 C 5.773438 3.421875 6.757812 4.402344 6.757812 5.628906 C 6.757812 6.855469 5.773438 7.839844 4.546875 7.839844 C 3.324219 7.839844 2.339844 6.855469 2.339844 5.628906 C 2.339844 4.402344 3.324219 3.421875 4.546875 3.421875 Z M 4.546875 3.421875 "/>
<path style=" stroke:none;fill-rule:nonzero;fill:url(#linear2);" d="M 10.914062 1.992188 C 15.6875 1.992188 19.554688 5.859375 19.554688 10.632812 C 19.554688 15.40625 15.6875 19.273438 10.914062 19.273438 C 6.144531 19.273438 2.273438 15.40625 2.273438 10.632812 C 2.273438 5.859375 6.144531 1.992188 10.914062 1.992188 Z M 10.914062 1.992188 "/>
<path style=" stroke:none;fill-rule:nonzero;fill:rgb(100%,100%,100%);fill-opacity:0.313725;" d="M 6.09375 3.449219 C 5.011719 4.175781 4.105469 5.144531 3.445312 6.273438 C 4.003906 6.578125 4.546875 6.808594 5.003906 6.539062 C 5.582031 6.222656 7.253906 7.558594 7.730469 7.902344 C 9.550781 8.8125 10.398438 7.976562 12.28125 6.992188 C 13.722656 6.363281 16.347656 6.589844 18.507812 6.492188 C 18.128906 5.792969 17.652344 5.152344 17.101562 4.589844 C 15.230469 3.960938 13.359375 3.28125 12.578125 4.320312 C 10.914062 6.539062 9.839844 4.566406 8.1875 5.175781 C 6.746094 5.453125 6.441406 4.421875 6.09375 3.449219 Z M 6.09375 3.449219 "/>
<path style=" stroke:none;fill-rule:nonzero;fill:rgb(100%,100%,100%);fill-opacity:0.313725;" d="M 18.800781 14.183594 C 17.890625 14.605469 17.226562 14.789062 16.371094 14.726562 C 15.386719 14.976562 16.28125 16.09375 15.464844 16.089844 C 14.457031 16.089844 10.914062 18.363281 8.640625 17 C 7.683594 16.804688 5.992188 16.527344 4.589844 16.53125 C 6.164062 18.21875 8.414062 19.273438 10.914062 19.273438 C 12.035156 19.273438 13.109375 19.0625 14.089844 18.675781 C 16.207031 17.480469 18.070312 15.808594 18.800781 14.183594 Z M 18.800781 14.183594 "/>
<path style=" stroke:none;fill-rule:nonzero;fill:rgb(100%,100%,100%);fill-opacity:0.313725;" d="M 4.5625 7.851562 C 4.421875 7.851562 4.265625 7.867188 4.09375 7.902344 C 3.789062 8.078125 3.980469 8.585938 3.636719 8.8125 C 3.496094 9.050781 3.023438 8.664062 2.59375 8.289062 C 2.386719 9.035156 2.273438 9.820312 2.273438 10.632812 C 2.273438 10.960938 2.292969 11.289062 2.328125 11.609375 C 3.25 11.964844 4.246094 12.898438 5.003906 12.453125 C 5.582031 12.136719 7.253906 13.46875 7.730469 13.816406 C 9.550781 14.726562 10.398438 13.890625 12.28125 12.90625 C 13.929688 12.1875 17.109375 12.582031 19.390625 12.339844 C 19.5 11.789062 19.554688 11.21875 19.554688 10.632812 C 19.554688 9.996094 19.488281 9.371094 19.359375 8.773438 C 17.113281 8.375 15.589844 9.253906 14.554688 10.632812 C 12.890625 12.851562 9.839844 10.480469 8.1875 11.085938 C 5.589844 11.589844 6.691406 7.84375 4.5625 7.851562 Z M 4.5625 7.851562 "/>
<path style=" stroke:none;fill-rule:nonzero;fill:rgb(100%,100%,100%);fill-opacity:0.392157;" d="M 10.914062 1.992188 C 6.128906 1.992188 2.273438 5.84375 2.273438 10.632812 C 2.273438 10.6875 2.273438 10.742188 2.277344 10.800781 C 2.363281 6.089844 6.183594 2.324219 10.914062 2.324219 C 15.644531 2.324219 19.464844 6.089844 19.554688 10.800781 C 19.554688 10.742188 19.554688 10.6875 19.554688 10.632812 C 19.554688 5.84375 15.703125 1.992188 10.914062 1.992188 Z M 10.914062 1.992188 "/>
<path style=" stroke:none;fill-rule:nonzero;fill:rgb(0%,0%,0%);fill-opacity:0.235294;" d="M 10.914062 19.273438 C 6.128906 19.273438 2.273438 15.417969 2.273438 10.632812 C 2.273438 10.578125 2.273438 10.519531 2.277344 10.464844 C 2.363281 15.175781 6.183594 18.9375 10.914062 18.9375 C 15.644531 18.9375 19.464844 15.175781 19.554688 10.464844 C 19.554688 10.519531 19.554688 10.578125 19.554688 10.632812 C 19.554688 15.417969 15.703125 19.273438 10.914062 19.273438 Z M 10.914062 19.273438 "/>
<path style=" stroke:none;fill-rule:nonzero;fill:rgb(12.941176%,12.941176%,12.941176%);fill-opacity:1;" d="M 10.914062 1.925781 C 6.09375 1.925781 2.210938 5.808594 2.210938 10.632812 C 2.210938 15.453125 6.09375 19.335938 10.914062 19.335938 C 15.738281 19.335938 19.621094 15.453125 19.621094 10.632812 C 19.621094 5.808594 15.738281 1.925781 10.914062 1.925781 Z M 10.914062 2.054688 C 15.667969 2.054688 19.492188 5.878906 19.492188 10.632812 C 19.492188 15.382812 15.667969 19.207031 10.914062 19.207031 C 6.164062 19.207031 2.339844 15.382812 2.339844 10.632812 C 2.339844 5.878906 6.164062 2.054688 10.914062 2.054688 Z M 10.914062 2.054688 "/>
<path style=" stroke:none;fill-rule:nonzero;fill:url(#linear3);" d="M 14.554688 11.996094 C 15.808594 11.996094 16.828125 13.015625 16.828125 14.269531 C 16.828125 15.527344 15.808594 16.542969 14.554688 16.542969 C 13.296875 16.542969 12.28125 15.527344 12.28125 14.269531 C 12.28125 13.015625 13.296875 11.996094 14.554688 11.996094 Z M 14.554688 11.996094 "/>
<path style=" stroke:none;fill-rule:nonzero;fill:rgb(100%,100%,100%);fill-opacity:0.313725;" d="M 15.210938 12.933594 C 14.984375 12.933594 14.800781 12.992188 14.675781 13.15625 C 13.984375 14.082031 13.535156 13.257812 12.847656 13.511719 C 12.664062 13.546875 12.527344 13.53125 12.417969 13.484375 C 12.328125 13.726562 12.28125 13.992188 12.28125 14.269531 C 12.28125 14.304688 12.28125 14.339844 12.28125 14.378906 C 12.441406 14.488281 12.585938 14.597656 12.65625 14.648438 C 13.417969 15.027344 13.769531 14.679688 14.554688 14.269531 C 15.082031 14.039062 15.992188 14.085938 16.820312 14.070312 C 16.796875 13.8125 16.730469 13.5625 16.628906 13.335938 C 16.605469 13.3125 16.585938 13.289062 16.5625 13.269531 C 16.078125 13.105469 15.589844 12.933594 15.210938 12.933594 Z M 15.210938 12.933594 "/>
<path style=" stroke:none;fill-rule:nonzero;fill:rgb(100%,100%,100%);fill-opacity:0.392157;" d="M 14.554688 11.996094 C 13.292969 11.996094 12.28125 13.011719 12.28125 14.269531 C 12.28125 14.300781 12.28125 14.328125 12.28125 14.355469 C 12.324219 13.136719 13.320312 12.167969 14.554688 12.167969 C 15.785156 12.167969 16.78125 13.136719 16.824219 14.355469 C 16.828125 14.328125 16.828125 14.300781 16.828125 14.269531 C 16.828125 13.011719 15.8125 11.996094 14.554688 11.996094 Z M 14.554688 11.996094 "/>
<path style=" stroke:none;fill-rule:nonzero;fill:rgb(12.941176%,12.941176%,12.941176%);fill-opacity:1;" d="M 14.554688 11.933594 C 13.257812 11.933594 12.214844 12.976562 12.214844 14.269531 C 12.214844 15.566406 13.257812 16.609375 14.554688 16.609375 C 15.847656 16.609375 16.890625 15.566406 16.890625 14.269531 C 16.890625 12.976562 15.847656 11.933594 14.554688 11.933594 Z M 14.554688 12.0625 C 15.777344 12.0625 16.761719 13.046875 16.761719 14.269531 C 16.761719 15.496094 15.777344 16.480469 14.554688 16.480469 C 13.328125 16.480469 12.34375 15.496094 12.34375 14.269531 C 12.34375 13.046875 13.328125 12.0625 14.554688 12.0625 Z M 14.554688 12.0625 "/>
<path style=" stroke:none;fill-rule:nonzero;fill:rgb(0%,0%,0%);fill-opacity:0.235294;" d="M 12.285156 14.441406 C 12.28125 14.496094 12.28125 14.554688 12.28125 14.613281 C 12.28125 15.871094 13.292969 16.886719 14.554688 16.886719 C 15.8125 16.886719 16.828125 15.871094 16.828125 14.613281 C 16.828125 14.554688 16.824219 14.496094 16.820312 14.441406 C 16.734375 15.621094 15.757812 16.542969 14.554688 16.542969 C 13.351562 16.542969 12.371094 15.621094 12.285156 14.441406 Z M 12.285156 14.441406 "/>
</g>
</svg>

<svg xmlns="http://www.w3.org/2000/svg" width="22pt" height="22pt" viewBox="0 0 22 22"><defs><radialGradient id="a" gradientUnits="userSpaceOnUse" cx="450.909" cy="189.579" fx="450.909" fy="189.579" r="21.167" gradientTransform="matrix(0 -.05372 -.09669 0 30.61 43.722)"><stop offset="0" stop-opacity=".314"/><stop offset=".222" stop-opacity=".275"/><stop offset="1" stop-opacity="0"/></radialGradient><radialGradient id="b" gradientUnits="userSpaceOnUse" cx="450.909" cy="189.579" fx="450.909" fy="189.579" r="21.167" gradientTransform="matrix(0 .05372 .09669 0 -8.78 -5.175)"><stop offset="0" stop-opacity=".314"/><stop offset=".222" stop-opacity=".275"/><stop offset="1" stop-opacity="0"/></radialGradient><radialGradient id="c" gradientUnits="userSpaceOnUse" cx="450.909" cy="189.579" fx="450.909" fy="189.579" r="21.167" gradientTransform="matrix(0 -.05372 .09669 0 -8.78 43.722)"><stop offset="0" stop-opacity=".314"/><stop offset=".222" stop-opacity=".275"/><stop offset="1" stop-opacity="0"/></radialGradient><radialGradient id="d" gradientUnits="userSpaceOnUse" cx="450.909" cy="189.579" fx="450.909" fy="189.579" r="21.167" gradientTransform="matrix(0 .05372 -.09669 0 30.61 -5.175)"><stop offset="0" stop-opacity=".314"/><stop offset=".222" stop-opacity=".275"/><stop offset="1" stop-opacity="0"/></radialGradient><linearGradient id="e" gradientUnits="userSpaceOnUse" x1="255.323" y1="233.5" x2="255.323" y2="254.667" gradientTransform="matrix(.00919 0 0 .04297 8.57 9.24)"><stop offset="0" stop-opacity=".275"/><stop offset="1" stop-opacity="0"/></linearGradient><linearGradient id="f" gradientUnits="userSpaceOnUse" x1="317.5" y1="148.833" x2="317.5" y2="43" gradientTransform="matrix(.04297 0 0 .04297 -9.096 1.508)"><stop offset="0" stop-color="#ff7043"/><stop offset="1" stop-color="#ffab91"/></linearGradient><linearGradient id="g" gradientUnits="userSpaceOnUse" x1="254" y1="233.5" x2="254" y2="-168.667" gradientTransform="matrix(.04297 0 0 .04297 0 9.24)"><stop offset="0" stop-color="#8d6e63"/><stop offset="1" stop-color="#a1887f"/></linearGradient><linearGradient id="h" gradientUnits="userSpaceOnUse" x1="317.5" y1="148.833" x2="317.5" y2="43" gradientTransform="matrix(.04297 0 0 .04297 .91 10.149)"><stop offset="0" stop-color="#78909c"/><stop offset="1" stop-color="#b0bec5"/></linearGradient></defs><path d="M12.508 19.273h1.816v-.91h-1.816zm0 0" fill="url(#a)"/><path d="M9.324 19.273h-1.82v.91h1.82zm0 0" fill="url(#b)"/><path d="M9.324 19.273h-1.82v-.91h1.82zm0 0" fill="url(#c)"/><path d="M12.508 19.273h1.816v.91h-1.816zm0 0" fill="url(#d)"/><path d="M9.324 19.047h3.184v1.137H9.324zm0 0" fill="url(#e)"/><path d="M4.547 3.355a2.273 2.273 0 1 1 0 4.547 2.273 2.273 0 0 1 0-4.547zm0 0" fill="url(#f)"/><path d="M5.207 4.29c-.227 0-.414.062-.535.226-.692.925-1.14.101-1.828.355a.72.72 0 0 1-.43-.027 2.258 2.258 0 0 0-.137.89c.16.114.301.223.375.274.758.379 1.114.031 1.895-.38.531-.23 1.441-.183 2.266-.198a2.284 2.284 0 0 0-.188-.735c-.023-.023-.043-.047-.066-.066-.489-.164-.977-.34-1.352-.34zm0 0" fill="#fff" fill-opacity=".314"/><path d="M4.547 3.29A2.336 2.336 0 0 0 2.21 5.628a2.336 2.336 0 0 0 2.336 2.34 2.336 2.336 0 0 0 2.34-2.34 2.336 2.336 0 0 0-2.34-2.34zm0 .132a2.2 2.2 0 0 1 2.21 2.207c0 1.226-.984 2.21-2.21 2.21A2.203 2.203 0 0 1 2.34 5.63a2.2 2.2 0 0 1 2.207-2.207zm0 0" fill="#212121"/><path d="M10.914 1.992a8.639 8.639 0 0 1 8.64 8.64 8.641 8.641 0 1 1-8.64-8.64zm0 0" fill="url(#g)"/><path d="M6.094 3.45a8.68 8.68 0 0 0-2.649 2.823c.559.305 1.102.536 1.559.266.578-.316 2.25 1.02 2.726 1.363 1.82.91 2.668.075 4.551-.91 1.442-.629 4.067-.402 6.227-.5a8.54 8.54 0 0 0-1.406-1.902c-1.872-.63-3.743-1.309-4.524-.27-1.664 2.22-2.738.246-4.39.856-1.442.277-1.747-.754-2.094-1.727zm0 0M18.8 14.184c-.91.421-1.573.605-2.429.543-.984.25-.09 1.367-.906 1.363-1.008 0-4.55 2.273-6.824.91-.957-.195-2.649-.473-4.051-.469a8.62 8.62 0 0 0 6.324 2.742c1.121 0 2.195-.21 3.176-.597 2.117-1.196 3.98-2.867 4.71-4.492zm0 0" fill="#fff" fill-opacity=".314"/><path d="M4.563 7.852c-.141 0-.297.015-.47.05-.304.176-.113.684-.456.91-.14.239-.614-.148-1.043-.523a8.75 8.75 0 0 0-.266 3.32c.922.356 1.918 1.29 2.676.844.578-.316 2.25 1.016 2.726 1.363 1.82.91 2.668.075 4.551-.91 1.649-.719 4.828-.324 7.11-.566.109-.55.164-1.121.164-1.707 0-.637-.067-1.262-.196-1.86-2.246-.398-3.77.48-4.804 1.86-1.664 2.219-4.715-.153-6.367.453-2.598.504-1.497-3.242-3.626-3.234zm0 0" fill="#fff" fill-opacity=".314"/><path d="M10.914 1.992a8.621 8.621 0 0 0-8.637 8.809 8.62 8.62 0 0 1 8.637-8.477c4.73 0 8.55 3.766 8.64 8.477v-.168c0-4.79-3.85-8.64-8.64-8.64zm0 0" fill="#fff" fill-opacity=".392"/><path d="M10.914 19.273a8.624 8.624 0 0 1-8.637-8.808 8.616 8.616 0 0 0 8.637 8.473c4.73 0 8.55-3.762 8.64-8.473v.168a8.621 8.621 0 0 1-8.64 8.64zm0 0" fill-opacity=".235"/><path d="M10.914 1.926a8.686 8.686 0 0 0-8.703 8.707 8.686 8.686 0 0 0 8.703 8.703 8.686 8.686 0 0 0 8.707-8.703 8.687 8.687 0 0 0-8.707-8.707zm0 .129a8.557 8.557 0 0 1 8.578 8.578 8.556 8.556 0 0 1-8.578 8.574 8.556 8.556 0 0 1-8.574-8.574 8.556 8.556 0 0 1 8.574-8.578zm0 0" fill="#212121"/><path d="M14.555 11.996a2.273 2.273 0 1 1 0 4.548 2.273 2.273 0 0 1 0-4.548zm0 0" fill="url(#h)"/><path d="M15.21 12.934c-.226 0-.41.058-.534.222-.692.926-1.14.102-1.828.356a.72.72 0 0 1-.43-.028c-.09.243-.137.508-.137.786v.109c.16.11.305.219.375.27.762.378 1.114.03 1.899-.38.527-.23 1.437-.183 2.265-.199a2.315 2.315 0 0 0-.191-.734c-.024-.024-.043-.047-.067-.066-.484-.165-.972-.336-1.351-.336zm0 0" fill="#fff" fill-opacity=".314"/><path d="M14.555 11.934a2.333 2.333 0 0 0-2.34 2.336 2.334 2.334 0 0 0 2.34 2.34 2.333 2.333 0 0 0 2.336-2.34 2.332 2.332 0 0 0-2.336-2.336zm0 .129c1.222 0 2.207.984 2.207 2.207 0 1.226-.985 2.21-2.207 2.21a2.204 2.204 0 0 1-2.211-2.21c0-1.223.984-2.207 2.21-2.207zm0 0" fill="#212121"/></svg>
